X:1
T:Is the Big Man Within
M:9/8
L:1/8
R:slipjig
K:D
AGF G2E E2F | GFE F2D D2F | AGF G2E E2c | dcB AFD D2F |
AGF G2E E2F | GFE F2D D2F | AGF G2E E2c | dcB AFD D2F ::
M: 6/8
F2A ABc | ded cBA | Bcd AFA | BGE E2G |
F2A ABc | ded cBA | Bcd AFG | AFD D2E :|
